X:1
T:Kilómetro 11
T:KILÓMETRO ONCE
T:POLCA CORRENTINA
T:Música: Tránsito Cocomarola
T:Letra: Constante Aguer
T:(c) 1940 T. Cocomarola, C. Aguer
T:(c) 1940 T. Cocomarola, C. Aguer
C:Tránsito Cocomarola
Z:Constante Aguer
Z:(c) 1940 T. Cocomarola, C. Aguer
%%score { 1 | ( 2 3 ) }
L:1/8
Q:3/8=80
M:6/8
K:Bb
V:1 treble nm="Piano" snm="Pno."
V:2 bass 
V:3 bass 
V:1
 [EG][DF][DF] [EG] || [DF]2 [EG] [DF][DF][EG] | [CE]2 [DF] [CE][CE][DF] | [FA]3 [EG]3 | %4
 [DF]3 [CE]3 | [B,D]6- | [B,D]3- [B,D]2 F |:S [DB][DB][DB] [Bd][Bd][df]- | [df]3- [df]2 [Bd] | %9
 [Bd][Bd][Ac] [Ac][GB][Ac]- | [Ac]2 [FA]- [FA]2 F | [FA][FA][FA] [GB][GB][Ac]- | %12
 [Ac]3- [Ac]2 [GB] | [GB][GB][FA] [FA][EG][DG]- | [DG]3- [DG]2 D | [DF][DF][DF] [DG][DF][DB]- | %16
 [DB]3- [DB]2 [DB] | [DA][DA][DG] [DG][DF][DF]- | [DF]2 [CE]- [CE]2 C | %19
 [CE][CE][CE] [DF][CE][FA]- | [FA]3- [FA]2 D ||1 [EG][EG][DF] [DF][CE][B,D]- | [B,D]3- [B,D]2 F :|2 %23
 [EG] [EG]2- [EG]2 [EFA] | [DFB]2 [EG] [DF][DF][EG] |: [DF]2 [EG] [DF][DF][EG] | %26
 [CE]2 [DF] [CE][CE][DF] | [CE]2 [DF] [CE][CE][DF] | [B,D]2 [EG] [DF][DF][EG] | %29
 [DF]2 [EG] [DF][DF][EG] | [F_A]2 [EG] [DF][DF][CE]- |1 [CE]2 [B,D]- [B,D]3 | %32
 [B,D]2 [EG] [DF][DF][EG] :|2 [CE]2 [B,D]- [B,D]3- | [B,D]3- [B,D]2!fine! | F!D.S.! |] %36
V:2
 z2 z2 || B,,2 [D,F,B,]- [D,F,B,] [D,F,B,]2 | F,,2 [E,F,A,]- [E,F,A,] [E,F,A,]2 | %3
 F,,2 [E,F,A,]- [E,F,A,] [E,F,A,]2 | F,,2 G,,- G,, A,,2 | G,F,F, G, F,2 | G,F,F, G, F,2 |: %7
 B,,2 [D,-F,-B,] [D,F,B,] [D,F,B,]2 | B,,2 [D,-F,-B,] [D,F,B,] [D,F,B,]2 | %9
 B,,2 [D,-F,-B,] [D,F,B,] [D,F,B,]2 | F,,2 [E,F,A,]- [E,F,A,] [E,F,A,]2 | %11
 F,,2 [E,F,A,]- [E,F,A,] [E,F,A,]2 | F,,2 [E,F,A,]- [E,F,A,] [E,F,A,]2 | F,,2 G,,- G,, A,,2 | %14
 B,,2 [D,F,B,]- [D,F,B,] [D,F,B,]2 | B,,2 [D,F,B,]- [D,F,B,] [D,F,B,]2 | %16
 B,,2 [D,F,B,]- [D,F,B,] [D,F,B,]2 | B,,2 [D,F,B,]- [D,F,B,] [D,F,B,]2 | %18
 F,,2 [E,F,A,]- [E,F,A,] [E,F,A,]2 | F,,2 [E,F,A,]- [E,F,A,] [E,F,A,]2 | %20
 F,,2 [E,F,A,]- [E,F,A,] [E,F,A,]2 ||1 F,,2 G,,- G,, A,,2 | B,,2 [D,F,B,]- [D,F,B,] [D,F,B,]2 :|2 %23
 F,,2 [E,F,A,]- [E,F,A,] [E,F,A,]2 | [B,,F,B,]2 z4 |: B,,2 [D,F,B,]- [D,F,B,] [D,F,B,]2 | %26
 F,,2 [E,F,A,]- [E,F,A,] [E,F,A,]2 | F,,2 [E,F,A,]- [E,F,A,] [E,F,A,]2 | %28
 B,,2 [D,F,B,]- [D,F,B,] [D,F,B,]2 | B,,2 [D,F,B,]- [D,F,B,] [D,F,B,]2 | %30
 !arpeggio![G,,D,=B,]2 z z2 z |1 z2 G, G,F,D,- | [B,,D,]2 [D,F,B,]- [D,F,B,] [D,F,B,]2 :|2 %33
 z2 G, G,F,G,- | G,2 F,- F,2 | z |] %36
V:3
 x4 || x6 | x6 | x6 | x6 | B,,6 | B,,6 |: x6 | x6 | x6 | x6 | x6 | x6 | x6 | x6 | x6 | x6 | x6 | %18
 x6 | x6 | x6 ||1 x6 | x6 :|2 x6 | x6 |: x6 | x6 | x6 | x6 | x6 | x6 |1 B,,6 | x6 :|2 B,,6- | %34
 B,,3- B,,2 | x |] %36

